**kern
*clefG2
*k[b-]
*M3/4
=1-
4.a
8g
8f
8g
=2
16r
8f
2f
16f
=3
(16g
2a)
8a
16b-
=4
16a
2b-
8cc
16b-
=5
4a
4g
16f
8r
16f
=6
8e
2f
(8f
=7
8g)
(4f
4g-)
8g-
=8
4g
4f
16r
(16g
16g)
16a
=9
4g
8f
16f
8.e
16f#
16fn
=10
2g
4r
=11
*_